X:11
T:Keepsake Box
C:Corwin Zekley
L:1/8
M:3/4
K:Dmin
"Dm" A3 F GA |"G" =B2 c3 B |"Dm" =B2 A4- | A6 |$ A3 F GA |"G" =B2 c3 B |"F" A3 G FG |"C" E6 |$ %8
"Dm" A3 F GA |"G" =B2 c3 B |"Bb" d2 f3 d |"F" c6 |$"Bb" d2 f3 g |"Bdim" a3 g f2 |"C" g6- | %15
"C#dim" g6 |$"Dm" a3 g fg |"C" e2 c3 e |"Bb" f3 e dc |"F" A6 |$"Bb" f3 e dc |"F" A2 F3 A |"C" G6 | %23
"A" F4 E2 |$"Bb" DF Bd fa |"C" c'3 g fe |"Dm" f3 e dc |"G7" A4 A2 |$"Bb" f3 e dc |"F" A2 F3 A | %30
"C" G4- GF |"F" F6 |] %32

